X:1
T:Title
%%score { ( 1 3 5 ) | ( 2 4 ) }
L:1/8
Q:1/4=106
M:4/4
K:G
V:1 treble nm="Grand Piano"
V:3 treble 
V:5 treble 
V:2 bass 
V:4 bass 
V:1
 [B,D]2 [B,D]2 [B,E]2 [B,E]2 | [B,F]>[B,A] [B,G]>[B,E] [B,E]2 [B,D]2 | c2 c2 B2 B2 | %3
w: G.~W.~Elderkin * * *|||
 B>d c>B z2 C2 | [B,D]2 [B,D]2 [B,E]2 [B,E]2 | [B,F]>[B,A] [B,G]>[B,E] [B,E]2 [B,D]2 | %6
w: |||
 [CE]2 [Ec]2 B2 G2 | F>E F>A [B,G]4 | [Bd]6 z2 | [GB]6 z2 | [FA]2 [GB]2 [Ac]2 [Fd]2 | [GB]6 z2 | %12
w: ||||||
 [Ge]>[Ge] [Ge]>[Ge] [Gd]2 [Gd]2 | [Fc]>[Ac] [Ac]>[Ac] B4 | A2 d2 ^c2 e2 | [DFd]6 z2 | [Bd]6 z2 | %17
w: |||||
 [GB]6 z2 | [FA]2 [GB]2 [Ac]2 [Fd]2 | B6 z2 | G>G G>G [FA]2 [FA]2 | B>B B>B [Ec]4 | %22
w: |||||
 [Gd]2 [GB]2 [DGB]2 [CFA]2 | [B,G]6 z2 |] %24
w: ||
V:2
 [G,,G,]2 [G,,G,]2 [G,,G,]2 [G,,G,]2 | [G,,G,]>[G,,G,] [G,,G,]>[G,,G,] [G,,G,]2 [G,,G,]2 | %2
 [E,G,C]2 [E,G,C]2 [E,G,^C]2 [E,G,C]2 | z4 D2 z2 | [G,,G,]2 [G,,G,]2 [G,,G,]2 [G,,G,]2 | %5
 [G,,G,]>[G,,G,] [G,,G,]>[G,,G,] [G,,G,]2 [G,,G,]2 | [C,G,]2 [A,,G,]2 [D,G,D]2 [D,B,D]2 | %7
 [D,A,D]>[D,G,D] [D,A,D]>[D,F,C] [G,,G,]4 | [G,D]>G, G,>G, z z/[K:treble] B/ B>A | %9
 G,>G, G,>G, G,2 [G,DG]2 | [D,D]2 [D,D]2 [D,D]2 [D,D]2 | [G,D]6 z2 | %12
 [C,C]>[C,C] [C,C]>[C,C] [D,B,]2 [D,B,]2 | [D,A,]>[D,D] [D,D]>[D,D][K:treble] [G,DG]4 | %14
 [A,DF]2 [A,F]2 [A,EG]2 [A,^CG]2 | D,6 z2 | G,,>G,, B,,>D, z z/[K:treble] B/ B>A | %17
 G,,>G,, B,,>D, G,2 [G,DG]2 | [D,D]2 [D,D]2 [D,D]2 [D,D]2 | [G,DG]6 z2 | %20
 [E,E]>[E,B,E] [E,B,E]>[E,B,E] [D,D]2 [D,D]2 | [G,DG]>[G,DG] [G,DF]>[G,D=F][K:bass] [C,C]4 | %22
 z2 .G,2 z4 | G,6 z2 |] %24
V:3
 x8 | x8 | x8 | z4 A4 | x8 | x8 | x8 | x8 | z z/ D/ D>D z z/ d/ d>c | D>D D>D D2 B2 | x8 | x8 | %12
 x8 | x8 | x8 | x8 | D>D D>D z z/ d/ d>c | D>D D>D D2 B2 | x8 | x8 | x8 | x8 | x8 | x8 |] %24
V:4
 x8 | x8 | x8 | [D,G,D]>[D,B,D] [D,A,D]>[D,G,D] [D,F,]4 | x8 | x8 | x8 | x8 | z4 G,2[K:treble] z2 | %9
 x8 | x8 | x8 | x8 | x4[K:treble] x4 | x8 | z2 C,2 B,,2 A,,2 | z4 G,2[K:treble] z2 | x8 | x8 | x8 | %20
 x8 | x4[K:bass] x4 | [B,,G,]2 D,-[D,B,] D,2 D,2 | x8 |] %24
V:5
 x8 | x8 | x8 | x8 | x8 | x8 | x8 | x8 | z4 D2 z2 | x8 | x8 | x8 | x8 | x8 | x8 | x8 | z4 D2 z2 | %17
 x8 | x8 | x8 | x8 | x8 | x8 | x8 |] %24

